symbols/web/medication/materialsymbolssharp/medication_wght300_20px.svg

<svg xmlns="http://www.w3.org/2000/svg" height="20" width="20"><path d="M9.042 14.188h1.916v-2.042H13v-1.917h-2.042V8.167H9.042v2.062H7v1.917h2.042Zm-4.459 2.854V5.354h10.834v11.688Zm1.334-1.334h8.166v-9.02H5.917ZM5.188 4.292V2.958h9.624v1.334Zm.729 11.416v-9.02 9.02Z"/></svg>

<svg xmlns="http://www.w3.org/2000/svg" height="20" width="20"><path d="M9.042 14.188H10.958V12.146H13V10.229H10.958V8.167H9.042V10.229H7V12.146H9.042ZM4.583 17.042V5.354H15.417V17.042ZM5.917 15.708H14.083V6.688H5.917ZM5.188 4.292V2.958H14.812V4.292ZM5.917 15.708V6.688V15.708Z"/></svg>
